icons/powerpoint-light.svg

<svg width="256" height="256" viewBox="0 0 256 256" fill="none" xmlns="http://www.w3.org/2000/svg">
<path d="M196 0H60C26.8629 0 0 26.8629 0 60V196C0 229.137 26.8629 256 60 256H196C229.137 256 256 229.137 256 196V60C256 26.8629 229.137 0 196 0Z" fill="#F4F2ED"/>
<path d="M139.54 51.0001C149.708 50.9883 159.778 52.9808 169.176 56.8639C178.573 60.747 187.113 66.4443 194.307 73.6302C201.501 80.8161 207.208 89.3495 211.102 98.7426C214.996 108.136 217 118.204 217 128.373C217.006 138.543 215.008 148.615 211.12 158.013C207.232 167.411 201.531 175.95 194.342 183.144C187.152 190.338 178.616 196.044 169.221 199.938C159.825 203.831 149.755 205.835 139.585 205.835C129.415 205.835 119.344 203.831 109.949 199.938C100.554 196.044 92.0177 190.338 84.8285 183.144C77.6392 175.95 71.9378 167.411 68.0499 158.013C64.1621 148.615 62.164 138.543 62.1699 128.373C62.1818 107.856 70.3371 88.1827 84.8442 73.6751C99.3513 59.1675 119.024 51.0119 139.54 51.0001Z" fill="#D35230"/>
<path d="M139.54 51C119.019 51.0356 99.3491 59.2035 84.8387 73.7144C70.3283 88.2252 62.1606 107.896 62.125 128.417H139.54V51Z" fill="#ED6C47"/>
<path d="M139.54 51C160.065 51.0356 179.74 59.202 194.257 73.7116C208.775 88.2212 216.952 107.892 217 128.417H139.54V51Z" fill="#FF8F6B"/>
<g opacity="0.67">
<path opacity="0.05" d="M77.1146 174.285H130.699C131.466 174.339 132.236 174.239 132.963 173.988C133.69 173.737 134.358 173.342 134.928 172.827C135.499 172.311 135.959 171.685 136.281 170.987C136.603 170.289 136.78 169.533 136.803 168.765V87.9811C136.779 87.2325 136.609 86.4958 136.301 85.8131C135.993 85.1305 135.553 84.5152 135.007 84.0025C134.461 83.4899 133.819 83.0898 133.119 82.8253C132.418 82.5608 131.672 82.437 130.924 82.4609H77.0696C70.3248 91.4903 65.6515 101.895 63.3818 112.934V143.722C65.6296 154.872 70.3195 165.387 77.1146 174.509V174.285Z" fill="black"/>
<path opacity="0.1" d="M87.9301 185.908H120.153C124.641 185.908 127.872 176.618 127.872 172.444V104.272C127.724 102.327 126.846 100.51 125.415 99.1866C123.983 97.8629 122.103 97.1302 120.153 97.1358H68.812C62.1759 112.059 60.4646 128.708 63.9262 144.669C67.3879 160.631 75.8427 175.075 88.0648 185.908H87.9301Z" fill="black"/>
<path opacity="0.2" d="M82.9486 180.793H120.377C122.276 180.742 124.089 179.99 125.466 178.68C126.842 177.37 127.683 175.596 127.827 173.702V99.1564C127.679 97.2119 126.802 95.3952 125.37 94.0714C123.938 92.7477 122.058 92.015 120.108 92.0205H71.2802C63.7173 106.184 60.776 122.36 62.8685 138.279C64.961 154.199 71.9824 169.064 82.9486 180.793Z" fill="black"/>
<path opacity="0.1" d="M78.6853 176.034H128.68C130.196 176.083 131.67 175.53 132.78 174.495C133.889 173.461 134.545 172.03 134.604 170.514V89.7308C134.568 88.2031 133.93 86.7513 132.829 85.692C131.728 84.6327 130.253 84.0518 128.725 84.0759H76.0375C66.4907 97.6347 61.5895 113.92 62.0667 130.496C62.544 147.071 68.3742 163.047 78.6853 176.034Z" fill="black"/>
<path opacity="0.1" d="M78.4608 177.471H127.288C130.564 177.471 133.167 170.246 133.167 167.149V92.155C133.144 91.4063 132.974 90.6696 132.666 89.987C132.357 89.3043 131.918 88.689 131.372 88.1764C130.826 87.6637 130.184 87.2637 129.483 86.9991C128.783 86.7346 128.037 86.6108 127.288 86.6348H73.4344C64.5176 100.347 60.1981 116.543 61.1018 132.875C62.0055 149.206 68.0855 164.826 78.4608 177.471Z" fill="black"/>
<path opacity="0.01" d="M71.5494 165.353L115.889 160.865C119.12 160.865 127.827 158.217 127.827 155.165V85.6468C127.78 84.131 127.135 82.6952 126.034 81.6527C124.933 80.6102 123.464 80.0455 121.948 80.0817H79.2237C69.6329 91.9306 63.7787 106.362 62.4044 121.544C61.03 136.726 64.1975 151.974 71.5047 165.353H71.5494Z" fill="black"/>
<path opacity="0.2" d="M85.013 183.26H120.153C122.088 183.255 123.951 182.524 125.372 181.21C126.793 179.897 127.669 178.098 127.827 176.169V101.489C127.679 99.5449 126.802 97.7282 125.37 96.4044C123.938 95.0807 122.058 94.348 120.108 94.3535H70.1135C62.9357 108.843 60.5117 125.227 63.1869 141.174C65.862 157.121 73.4999 171.817 85.013 183.17V183.26Z" fill="black"/>
<path opacity="0.3" d="M76.8454 173.611H120.153C122.095 173.605 123.964 172.867 125.386 171.544C126.809 170.222 127.68 168.412 127.827 166.475V93.7697C127.669 91.8332 126.786 90.0276 125.355 88.7132C123.925 87.3988 122.051 86.6723 120.108 86.6788H74.6462C66.1658 99.6931 61.847 114.98 62.2639 130.508C62.6807 146.037 67.8136 161.07 76.98 173.611H76.8454Z" fill="black"/>
<path opacity="0.3" d="M76.5311 173.207H120.153C122.107 173.201 123.987 172.458 125.418 171.127C126.849 169.796 127.725 167.975 127.872 166.026V93.7697C127.714 91.8332 126.831 90.0276 125.4 88.7132C123.969 87.3988 122.096 86.6723 120.153 86.6788H74.6462C66.2087 99.6174 61.8821 114.806 62.2345 130.249C62.587 145.691 67.6019 160.666 76.6208 173.207H76.5311Z" fill="black"/>
<path opacity="0.3" d="M79.5829 177.246H119.973C121.946 177.286 123.86 176.568 125.321 175.241C126.781 173.914 127.678 172.078 127.827 170.11V95.6094C127.68 93.6607 126.804 91.8391 125.373 90.508C123.942 89.177 122.062 88.4345 120.108 88.4287H73.3896C65.0862 102.048 61.2218 117.912 62.3314 133.824C63.441 149.737 69.4696 164.911 79.5829 177.246Z" fill="black"/>
<path opacity="0.2" d="M81.0638 178.907H120.153C122.091 178.912 123.959 178.184 125.383 176.869C126.807 175.554 127.68 173.748 127.827 171.816V97.2707C127.68 95.3262 126.802 93.5095 125.37 92.1857C123.938 90.8619 122.058 90.1292 120.108 90.1348H72.4024C64.398 103.984 60.9292 119.991 62.4825 135.911C64.0359 151.832 70.5334 166.866 81.0638 178.907Z" fill="black"/>
<path opacity="0.1" d="M77.2042 175.765H126.57C129.846 175.765 132.449 170.379 132.449 167.327V94.9811C132.426 94.2325 132.256 93.4958 131.948 92.8132C131.639 92.1305 131.2 91.5152 130.654 91.0026C130.108 90.4899 129.466 90.0899 128.765 89.8253C128.065 89.5608 127.319 89.437 126.57 89.4609H71.8637C63.9178 102.697 60.1744 118.033 61.1279 133.442C62.0814 148.851 67.687 163.609 77.2042 175.765Z" fill="black"/>
<path opacity="0.2" d="M76.9799 173.746H123.339C124.085 173.776 124.83 173.657 125.531 173.398C126.231 173.138 126.873 172.743 127.42 172.234C127.967 171.724 128.407 171.112 128.716 170.432C129.024 169.752 129.195 169.017 129.218 168.27V94.7126C129.195 93.964 129.024 93.2272 128.716 92.5446C128.408 91.8619 127.969 91.2466 127.423 90.734C126.877 90.2213 126.235 89.8213 125.534 89.5568C124.834 89.2922 124.088 89.1684 123.339 89.1924H73.1203C65.3457 102.093 61.5635 117.007 62.2503 132.053C62.9371 147.1 68.0623 161.607 76.9799 173.746Z" fill="black"/>
<path opacity="0.3" d="M74.9154 170.784H123.878C124.626 170.808 125.372 170.684 126.073 170.419C126.773 170.155 127.415 169.755 127.961 169.242C128.507 168.729 128.947 168.114 129.255 167.432C129.563 166.749 129.733 166.012 129.757 165.264V92.1546C129.757 88.8784 121.813 87.0383 120.781 86.0958C118.244 84.8304 115.448 84.1698 112.613 84.166H75.8579C67.0264 96.8416 62.2134 111.882 62.0453 127.33C61.8772 142.778 66.3617 157.919 74.9154 170.784Z" fill="black"/>
<path opacity="0.1" d="M81.6472 179.58H125.628C126.376 179.597 127.121 179.468 127.82 179.198C128.518 178.928 129.156 178.523 129.698 178.006C130.24 177.489 130.674 176.871 130.977 176.186C131.28 175.501 131.445 174.763 131.462 174.015V98.6616C131.415 97.1696 130.78 95.7566 129.696 94.7309C128.611 93.7052 127.165 93.15 125.673 93.1862H70.7867C63.6133 106.987 60.8102 122.644 62.7502 138.076C64.6902 153.508 71.2812 167.984 81.6472 179.58Z" fill="black"/>
<path opacity="0.1" d="M72.4471 166.79L115.889 162.302C119.12 162.302 127.827 159.654 127.827 156.602V87.2179C127.821 86.4558 127.664 85.7025 127.364 85.0018C127.064 84.3012 126.628 83.6671 126.081 83.1367C125.534 82.6062 124.887 82.1899 124.177 81.9121C123.467 81.6342 122.71 81.5003 121.948 81.5182H78.0569C68.7575 93.5665 63.2574 108.112 62.2583 123.299C61.2592 138.486 64.8063 153.627 72.4471 166.79Z" fill="black"/>
<path opacity="0.15" d="M73.2549 168.091L115.889 163.603C119.12 163.603 127.827 160.955 127.827 157.903V95.0715C127.827 91.9748 122.307 82.8643 116.248 82.8643H77.0246C67.9554 95.0739 62.7423 109.716 62.0546 124.91C61.3669 140.104 65.236 155.157 73.1652 168.136L73.2549 168.091Z" fill="black"/>
</g>
<path d="M47.3602 84.167H121.095C122.068 84.167 123.031 84.3585 123.929 84.7307C124.827 85.1028 125.644 85.6483 126.331 86.3359C127.019 87.0236 127.564 87.8399 127.936 88.7383C128.309 89.6368 128.5 90.5997 128.5 91.5721V165.309C128.5 166.28 128.308 167.241 127.936 168.136C127.563 169.032 127.017 169.846 126.329 170.53C125.64 171.214 124.824 171.755 123.926 172.122C123.027 172.49 122.065 172.676 121.095 172.67H47.3602C46.392 172.676 45.4322 172.489 44.5366 172.122C43.6409 171.754 42.8272 171.212 42.1426 170.527C41.4579 169.843 40.916 169.029 40.5482 168.133C40.1805 167.237 39.9942 166.278 40.0001 165.309V91.5721C39.9942 90.6018 40.1802 89.6399 40.5474 88.7417C40.9146 87.8435 41.4559 87.0268 42.14 86.3386C42.824 85.6504 43.6374 85.1042 44.5333 84.7315C45.4292 84.3589 46.3899 84.167 47.3602 84.167Z" fill="#C43E1C"/>
<path d="M84.4295 100.772C89.9326 100.375 95.3953 101.967 99.8229 105.26C101.618 106.87 103.026 108.864 103.943 111.094C104.86 113.325 105.262 115.733 105.118 118.14C105.192 121.335 104.266 124.473 102.471 127.116C100.664 129.95 98.0988 132.22 95.0658 133.668C91.5677 135.289 87.7452 136.087 83.891 136.002H73.2998V156.018H62.4841V100.772H84.4295ZM73.1652 126.667H82.4998C85.4586 126.855 88.3872 125.98 90.7574 124.199C91.6848 123.591 92.4323 122.746 92.9217 121.752C93.4111 120.757 93.6245 119.649 93.5398 118.544C93.5398 112.395 89.9945 109.568 82.8589 109.568H73.1652V126.667Z" fill="#F9F7F7"/>
</svg>

<svg xmlns="http://www.w3.org/2000/svg" width="256" height="256" fill="none"><path fill="#F4F2ED" d="M196 0H60C26.863 0 0 26.863 0 60v136c0 33.137 26.863 60 60 60h136c33.137 0 60-26.863 60-60V60c0-33.137-26.863-60-60-60"/><path fill="#D35230" d="M139.54 51A77.37 77.37 0 0 1 217 128.373 77.415 77.415 0 1 1 84.844 73.675 77.4 77.4 0 0 1 139.54 51"/><path fill="#ED6C47" d="M139.54 51a77.55 77.55 0 0 0-77.415 77.417h77.415z"/><path fill="#FF8F6B" d="M139.54 51A77.6 77.6 0 0 1 217 128.417h-77.46z"/><g fill="#000" opacity=".67"><path d="M77.115 174.285h53.584a5.7 5.7 0 0 0 4.229-1.458 5.7 5.7 0 0 0 1.875-4.062V87.981a5.7 5.7 0 0 0-5.879-5.52H77.07a76.75 76.75 0 0 0-13.688 30.473v30.788a77 77 0 0 0 13.733 30.787z" opacity=".05"/><path d="M87.93 185.908h32.223c4.488 0 7.719-9.29 7.719-13.464v-68.172a7.72 7.72 0 0 0-7.719-7.136H68.812a76.88 76.88 0 0 0 19.253 88.772z" opacity=".1"/><path d="M82.949 180.793h37.428a7.677 7.677 0 0 0 7.45-7.091V99.156a7.72 7.72 0 0 0-7.719-7.136H71.28a76.93 76.93 0 0 0 11.669 88.773" opacity=".2"/><path d="M78.685 176.034h49.995a5.75 5.75 0 0 0 5.924-5.52V89.731a5.794 5.794 0 0 0-5.879-5.655H76.038a76.79 76.79 0 0 0 2.647 91.958" opacity=".1"/><path d="M78.46 177.471h48.828c3.276 0 5.879-7.225 5.879-10.322V92.155a5.696 5.696 0 0 0-5.879-5.52H73.434a77.02 77.02 0 0 0 5.027 90.836" opacity=".1"/><path d="m71.55 165.353 44.339-4.488c3.231 0 11.938-2.648 11.938-5.7V85.647a5.747 5.747 0 0 0-5.879-5.565H79.224a76.925 76.925 0 0 0-7.72 85.271z" opacity=".01"/><path d="M85.013 183.26h35.14a7.716 7.716 0 0 0 7.674-7.091v-74.68a7.72 7.72 0 0 0-7.719-7.136H70.114a76.84 76.84 0 0 0 14.899 88.817z" opacity=".2"/><path d="M76.845 173.611h43.308a7.72 7.72 0 0 0 7.674-7.136V93.77a7.72 7.72 0 0 0-7.719-7.091H74.646a76.52 76.52 0 0 0 2.334 86.932z" opacity=".3"/><path d="M76.531 173.207h43.622a7.766 7.766 0 0 0 7.719-7.181V93.77a7.72 7.72 0 0 0-7.719-7.091H74.646a76.57 76.57 0 0 0 1.975 86.528z" opacity=".3"/><path d="M79.583 177.246h40.39a7.723 7.723 0 0 0 7.854-7.136v-74.5a7.764 7.764 0 0 0-7.719-7.181H73.39a76.93 76.93 0 0 0 6.193 88.817" opacity=".3"/><path d="M81.064 178.907h39.089a7.68 7.68 0 0 0 7.674-7.091V97.271a7.717 7.717 0 0 0-7.719-7.136H72.402a76.61 76.61 0 0 0 8.662 88.772" opacity=".2"/><path d="M77.204 175.765h49.366c3.276 0 5.879-5.386 5.879-8.438V94.981a5.696 5.696 0 0 0-5.879-5.52H71.864a76.3 76.3 0 0 0 5.34 86.304" opacity=".1"/><path d="M76.98 173.746h46.359a5.67 5.67 0 0 0 4.081-1.512 5.66 5.66 0 0 0 1.798-3.964V94.713a5.7 5.7 0 0 0-5.879-5.52H73.12a76.3 76.3 0 0 0 3.86 84.553" opacity=".2"/><path d="M74.915 170.784h48.963a5.7 5.7 0 0 0 4.083-1.542 5.7 5.7 0 0 0 1.796-3.978v-73.11c0-3.276-7.944-5.116-8.976-6.058a18.36 18.36 0 0 0-8.168-1.93H75.858a76.97 76.97 0 0 0-.943 86.618" opacity=".3"/><path d="M81.647 179.58h43.981a5.7 5.7 0 0 0 5.834-5.565V98.662a5.657 5.657 0 0 0-5.789-5.476H70.787a76.61 76.61 0 0 0 10.86 86.394" opacity=".1"/><path d="m72.447 166.79 43.442-4.488c3.231 0 11.938-2.648 11.938-5.7V87.218a5.745 5.745 0 0 0-5.879-5.7H78.057a76.61 76.61 0 0 0-5.61 85.272" opacity=".1"/><path d="m73.255 168.091 42.634-4.488c3.231 0 11.938-2.648 11.938-5.7V95.072c0-3.097-5.52-12.208-11.579-12.208H77.025a76.3 76.3 0 0 0-3.86 85.272z" opacity=".15"/></g><path fill="#C43E1C" d="M47.36 84.167h73.735a7.4 7.4 0 0 1 6.841 4.571 7.4 7.4 0 0 1 .564 2.834v73.737a7.37 7.37 0 0 1-2.171 5.221 7.37 7.37 0 0 1-5.234 2.14H47.36a7.314 7.314 0 0 1-7.36-7.361V91.572a7.36 7.36 0 0 1 7.36-7.405"/><path fill="#F9F7F7" d="M84.43 100.772a23.02 23.02 0 0 1 15.393 4.488 16.02 16.02 0 0 1 5.295 12.88 15.35 15.35 0 0 1-2.647 8.976 17.96 17.96 0 0 1-7.405 6.552 25.25 25.25 0 0 1-11.175 2.334H73.3v20.016H62.484v-55.246zm-11.265 25.895H82.5a12.43 12.43 0 0 0 8.257-2.468 6.2 6.2 0 0 0 2.782-5.655c0-6.149-3.544-8.976-10.68-8.976h-9.694z"/></svg>
